data/sheikah/c.svg

<!-- Generated by IcoMoon.io -->
<svg version="1.1" xmlns="http://www.w3.org/2000/svg" width="1024" height="1024" viewBox="0 0 1024 1024">
<title></title>
<g id="icomoon-ignore">
</g>
<path d="M153.5 273l119.5-119.5h79.5l119.5 119.5v79.5l-119.5 119.5h-79.5v80h79.5l119.5 119.5v79.5l-119.5 119.5h-79.5l-119.5-119.5h199v-79.5h-79.5l-119.5-119.5v-80l119.5-119.5h79.5v-79.5h-199zM870.5 273l-119.5-119.5h-79.5l-119.5 119.5v79.5l119.5 119.5h79.5v80h-79.5l-119.5 119.5v79.5l119.5 119.5h79.5l119.5-119.5h-199v-79.5h79.5l119.5-119.5v-80l-119.5-119.5h-79.5v-79.5h199z"></path>
</svg>

<svg xmlns="http://www.w3.org/2000/svg" width="1024" height="1024" viewBox="0 0 1024 1024">
  <title/>
  <path d="M153.5 273 273 153.5h79.5L472 273v79.5L352.5 472H273v80h79.5L472 671.5V751L352.5 870.5H273L153.5 751h199v-79.5H273L153.5 552v-80L273 352.5h79.5V273zm717 0L751 153.5h-79.5L552 273v79.5L671.5 472H751v80h-79.5L552 671.5V751l119.5 119.5H751L870.5 751h-199v-79.5H751L870.5 552v-80L751 352.5h-79.5V273z"/>
</svg>
